16x16/apps/openoffice4-writer.svg

<svg xmlns="http://www.w3.org/2000/svg" width="16" height="16" version="1"><circle style="fill:#3e50b4" cx="8.5" cy="8.5" r="7.5"/><path style="fill:#f4f4f7" d="M5 5v1h7V5zm0 2v1h7V7zm0 2v1h7V9zm0 2v1h4v-1z"/></svg>

<svg xmlns="http://www.w3.org/2000/svg" width="16" height="16" version="1">
 <circle style="fill:#3e50b4" cx="8.5" cy="8.5" r="7.5"/>
 <path style="fill:#f4f4f7" d="M 5,5 V 6 H 12 V 5 Z M 5,7 V 8 H 12 V 7 Z M 5,9 V 10 H 12 V 9 Z M 5,11 V 12 H 9 V 11 Z"/>
</svg>
